src/assets/icons/step.svg

<svg width="32" height="38" viewBox="0 0 32 38" fill="none" xmlns="http://www.w3.org/2000/svg">
<path d="M31.1429 35.2942H29.7143V1.76483C29.7143 0.790196 28.9468 0.00012207 28 0.00012207H4C3.05321 0.00012207 2.28571 0.790196 2.28571 1.76483V35.2942H0.857143C0.383786 35.2942 0 35.6893 0 36.1766V37.6472H32V36.1766C32 35.6893 31.6162 35.2942 31.1429 35.2942ZM9.14286 5.58836C9.14286 5.10108 9.52664 4.706 10 4.706H12.8571C13.3305 4.706 13.7143 5.10108 13.7143 5.58836V8.52953C13.7143 9.01681 13.3305 9.41189 12.8571 9.41189H10C9.52664 9.41189 9.14286 9.01681 9.14286 8.52953V5.58836ZM9.14286 12.6472C9.14286 12.1599 9.52664 11.7648 10 11.7648H12.8571C13.3305 11.7648 13.7143 12.1599 13.7143 12.6472V15.5884C13.7143 16.0756 13.3305 16.4707 12.8571 16.4707H10C9.52664 16.4707 9.14286 16.0756 9.14286 15.5884V12.6472ZM12.8571 23.5295H10C9.52664 23.5295 9.14286 23.1345 9.14286 22.6472V19.706C9.14286 19.2187 9.52664 18.8237 10 18.8237H12.8571C13.3305 18.8237 13.7143 19.2187 13.7143 19.706V22.6472C13.7143 23.1345 13.3305 23.5295 12.8571 23.5295ZM18.2857 35.2942H13.7143V29.1178C13.7143 28.6305 14.0981 28.2354 14.5714 28.2354H17.4286C17.9019 28.2354 18.2857 28.6305 18.2857 29.1178V35.2942ZM22.8571 22.6472C22.8571 23.1345 22.4734 23.5295 22 23.5295H19.1429C18.6695 23.5295 18.2857 23.1345 18.2857 22.6472V19.706C18.2857 19.2187 18.6695 18.8237 19.1429 18.8237H22C22.4734 18.8237 22.8571 19.2187 22.8571 19.706V22.6472ZM22.8571 15.5884C22.8571 16.0756 22.4734 16.4707 22 16.4707H19.1429C18.6695 16.4707 18.2857 16.0756 18.2857 15.5884V12.6472C18.2857 12.1599 18.6695 11.7648 19.1429 11.7648H22C22.4734 11.7648 22.8571 12.1599 22.8571 12.6472V15.5884ZM22.8571 8.52953C22.8571 9.01681 22.4734 9.41189 22 9.41189H19.1429C18.6695 9.41189 18.2857 9.01681 18.2857 8.52953V5.58836C18.2857 5.10108 18.6695 4.706 19.1429 4.706H22C22.4734 4.706 22.8571 5.10108 22.8571 5.58836V8.52953Z" fill="white"/>
</svg>

<svg xmlns="http://www.w3.org/2000/svg" width="32" height="38" fill="none"><path fill="#fff" d="M31.143 35.294h-1.429V1.764C29.714.79 28.947 0 28 0H4c-.947 0-1.714.79-1.714 1.765v33.53H.857a.87.87 0 0 0-.857.882v1.47h32v-1.47a.87.87 0 0 0-.857-.883Zm-22-29.706A.87.87 0 0 1 10 4.706h2.857a.87.87 0 0 1 .857.882V8.53a.87.87 0 0 1-.857.882H10a.87.87 0 0 1-.857-.882V5.588Zm0 7.06a.87.87 0 0 1 .857-.883h2.857a.87.87 0 0 1 .857.882v2.941a.87.87 0 0 1-.857.883H10a.87.87 0 0 1-.857-.883v-2.94Zm3.714 10.881H10a.87.87 0 0 1-.857-.882v-2.941a.87.87 0 0 1 .857-.882h2.857a.87.87 0 0 1 .857.882v2.941a.87.87 0 0 1-.857.883Zm5.429 11.765h-4.572v-6.176a.87.87 0 0 1 .857-.883h2.858a.87.87 0 0 1 .857.883v6.176Zm4.571-12.647a.87.87 0 0 1-.857.883h-2.857a.87.87 0 0 1-.857-.883v-2.941a.87.87 0 0 1 .857-.882H22a.87.87 0 0 1 .857.882v2.941Zm0-7.059a.87.87 0 0 1-.857.883h-2.857a.87.87 0 0 1-.857-.883v-2.94a.87.87 0 0 1 .857-.883H22a.87.87 0 0 1 .857.882v2.941Zm0-7.058a.87.87 0 0 1-.857.882h-2.857a.87.87 0 0 1-.857-.882V5.588a.87.87 0 0 1 .857-.882H22a.87.87 0 0 1 .857.882V8.53Z"/></svg>
